X:1
T: The Kinnegad Slashers
K:C
R roger wilson
M: jig46
L: 1/8
R: jig
K:Dmaj
Q:1/4=140
|:A | ded dAF | ABA ABc | ded dAF | E2g gfe |
ded dAF | ABA a2g | fef dBA | Bdc d2 :|
|:A | dfa afd | cde ecA | dfa afd | fa^g a2f |
dfa afd | cde eag | fef dBA | Bdc d2 :|
|:A | dAF dAF | dAF ABc | dAF dAF | E2g gfe |
dAF dAF | dAF a2g | fef dBA | Bdc d2 :|]
